SVG_Azure_Grouped/Application/Notification Hub.svg

<?xml version="1.0" encoding="UTF-8" standalone="no"?>
<!-- Generated by Microsoft Visio, SVG Export Notification Hub.svg Page-1 -->

<svg
   xmlns:dc="http://purl.org/dc/elements/1.1/"
   xmlns:cc="http://creativecommons.org/ns#"
   xmlns:rdf="http://www.w3.org/1999/02/22-rdf-syntax-ns#"
   xmlns:svg="http://www.w3.org/2000/svg"
   xmlns="http://www.w3.org/2000/svg"
   xmlns:sodipodi="http://sodipodi.sourceforge.net/DTD/sodipodi-0.dtd"
   xmlns:inkscape="http://www.inkscape.org/namespaces/inkscape"
   width="0.78735703in"
   height="0.67064732in"
   viewBox="0 0 56.69 48.286373"
   xml:space="preserve"
   class="st4"
   version="1.1"
   id="svg39"
   sodipodi:docname="Notification Hub.svg"
   style="font-size:12px;overflow:visible;color-interpolation-filters:sRGB;fill:none;fill-rule:evenodd;stroke-linecap:square;stroke-miterlimit:3"
   inkscape:version="0.92.5 (2060ec1f9f, 2020-04-08)"><metadata
   id="metadata43"><rdf:RDF><cc:Work
       rdf:about=""><dc:format>image/svg+xml</dc:format><dc:type
         rdf:resource="http://purl.org/dc/dcmitype/StillImage" /></cc:Work></rdf:RDF></metadata><sodipodi:namedview
   pagecolor="#ffffff"
   bordercolor="#666666"
   borderopacity="1"
   objecttolerance="10"
   gridtolerance="10"
   guidetolerance="10"
   inkscape:pageopacity="0"
   inkscape:pageshadow="2"
   inkscape:window-width="640"
   inkscape:window-height="480"
   id="namedview41"
   showgrid="false"
   inkscape:zoom="1.5304989"
   inkscape:cx="37.795274"
   inkscape:cy="31.8756"
   inkscape:window-x="0"
   inkscape:window-y="0"
   inkscape:window-maximized="0"
   inkscape:current-layer="svg39" />
	<style
   type="text/css"
   id="style2">
	<![CDATA[
		.st1 {fill:url(#grad0-6);stroke:none;stroke-linecap:butt;stroke-width:33.4434}
		.st2 {fill:#ffe452;stroke:none;stroke-linecap:butt;stroke-width:33.4434}
		.st3 {fill:#ffffff;stroke:none;stroke-linecap:butt;stroke-width:33.4434}
		.st4 {fill:none;fill-rule:evenodd;font-size:12px;overflow:visible;stroke-linecap:square;stroke-miterlimit:3}
	]]>
	</style>

	<defs
   id="Patterns_And_Gradients">
		<linearGradient
   id="grad0-6"
   x1="-1.0823239e-06"
   y1="73.094198"
   x2="52.319998"
   y2="73.094198"
   gradientTransform="scale(1.0835245,0.92291404)"
   gradientUnits="userSpaceOnUse">
			<stop
   offset="0"
   stop-color="#ffd70f"
   stop-opacity="1"
   id="stop4" />
			<stop
   offset="0.34"
   stop-color="#eeb309"
   stop-opacity="1"
   id="stop6" />
			<stop
   offset="0.77"
   stop-color="#dc8c03"
   stop-opacity="1"
   id="stop8" />
			<stop
   offset="1"
   stop-color="#d57d01"
   stop-opacity="1"
   id="stop10" />
		</linearGradient>
	</defs>
	<g
   id="g37"
   transform="translate(-33.443399,-33.444546)">
		<title
   id="title14">Page-1</title>
		<g
   id="group13790-1"
   transform="translate(33.4434,-34.0157)">
			<title
   id="title16">Notification Hub.13790</title>
			<g
   id="group13791-2">
				<title
   id="title18">g21</title>
				<g
   id="shape13792-3">
					<title
   id="title20">path15</title>
					<path
   d="m 56.69,69.44 v 36.93 a 1.93423,1.97816 0 0 1 -1.96,1.98 H 39.65 a 0.466883,0.477488 -180 0 0 -0.466883,0.47749 L 39.18,114.8 a 0.933766,0.954975 0 0 1 -1.50069,0.75034 L 28.61,108.46 H 28.31 1.97 A 1.93423,1.97816 0 0 1 0,106.48 V 69.44 a 1.93423,1.97816 0 0 1 1.97,-1.98 h 52.76 a 1.93423,1.97816 0 0 1 1.96,1.98 z"
   class="st1"
   id="path22"
   inkscape:connector-curvature="0"
   style="fill:url(#grad0-6);stroke:none;stroke-width:33.44340134;stroke-linecap:butt" />
				</g>
				<g
   id="shape13793-7"
   transform="translate(4.92383,-15.3264)">
					<title
   id="title25">path17</title>
					<path
   d="m 0.25,106.93 10,8.6 a 0.967114,0.989082 -180 0 0 1.56739,-0.75034 L 11.82,111.03 H 51.7 v -5.8 H 0.85 a 0.967114,0.989082 -180 0 0 -0.600278,1.70531 z"
   class="st2"
   id="path27"
   inkscape:connector-curvature="0"
   style="fill:#ffe452;stroke:none;stroke-width:33.44340134;stroke-linecap:butt" />
				</g>
				<g
   id="shape13794-9"
   transform="translate(0,-30.863)">
					<title
   id="title30">path19</title>
					<path
   d="m 52.49,113.81 -10.37,-8.6 a 0.967114,0.989082 -180 0 0 -1.56739,0.75034 L 40.55,109.71 H 0 v 5.94 h 51.89 a 0.967114,0.989082 -180 0 0 0.600278,-1.84174 z"
   class="st3"
   id="path32"
   inkscape:connector-curvature="0"
   style="fill:#ffffff;stroke:none;stroke-width:33.44340134;stroke-linecap:butt" />
				</g>
			</g>
		</g>
	</g>
</svg>

<?xml version="1.0" encoding="UTF-8" standalone="no"?>
<!DOCTYPE svg PUBLIC "-//W3C//DTD SVG 1.1//EN" "http://www.w3.org/Graphics/SVG/1.1/DTD/svg11.dtd">
<!-- Generated by Microsoft Visio, SVG Export Notification Hub.svg Page-1 -->
<svg xmlns="http://www.w3.org/2000/svg" xmlns:xlink="http://www.w3.org/1999/xlink" xmlns:ev="http://www.w3.org/2001/xml-events"
		width="1.71638in" height="1.60623in" viewBox="0 0 123.58 115.648" xml:space="preserve" color-interpolation-filters="sRGB"
		class="st4">
	<style type="text/css">
	<![CDATA[
		.st1 {fill:url(#grad0-6);stroke:none;stroke-linecap:butt;stroke-width:33.4434}
		.st2 {fill:#ffe452;stroke:none;stroke-linecap:butt;stroke-width:33.4434}
		.st3 {fill:#ffffff;stroke:none;stroke-linecap:butt;stroke-width:33.4434}
		.st4 {fill:none;fill-rule:evenodd;font-size:12px;overflow:visible;stroke-linecap:square;stroke-miterlimit:3}
	]]>
	</style>

	<defs id="Patterns_And_Gradients">
		<linearGradient id="grad0-6" x1="0" y1="0" x2="1" y2="0" gradientTransform="rotate(90 0.5 0.5)">
			<stop offset="0" stop-color="#ffd70f" stop-opacity="1"/>
			<stop offset="0.34" stop-color="#eeb309" stop-opacity="1"/>
			<stop offset="0.77" stop-color="#dc8c03" stop-opacity="1"/>
			<stop offset="1" stop-color="#d57d01" stop-opacity="1"/>
		</linearGradient>
	</defs>
	<g>
		<title>Page-1</title>
		<g id="group13443-1" transform="translate(33.4434,-34.0157)">
			<title>Notification Hub.13443</title>
			<g id="group13444-2">
				<title>g21</title>
				<g id="shape13445-3">
					<title>path15</title>
					<path d="M56.69 69.44 L56.69 106.37 A1.93423 1.97816 0 0 1 54.73 108.35 L39.65 108.35 a0.466883 0.477488 -180
								 0 0 -0.466883 0.477488 L39.18 114.8 a0.933766 0.954975 0 0 1 -1.50069 0.750338 L28.61 108.46 L28.31
								 108.46 L1.97 108.46 A1.93423 1.97816 0 0 1 -0 106.48 L0 69.44 A1.93423 1.97816 0 0 1 1.97 67.46
								 L54.73 67.46 A1.93423 1.97816 0 0 1 56.69 69.44 Z" class="st1"/>
				</g>
				<g id="shape13446-7" transform="translate(4.92383,-15.3264)">
					<title>path17</title>
					<path d="M0.25 106.93 L10.25 115.53 a0.967114 0.989082 -180 0 0 1.56739 -0.750338 L11.82 111.03 L51.7 111.03
								 L51.7 105.23 L0.85 105.23 a0.967114 0.989082 -180 0 0 -0.600278 1.70531 Z" class="st2"/>
				</g>
				<g id="shape13447-9" transform="translate(2.79776E-13,-30.863)">
					<title>path19</title>
					<path d="M52.49 113.81 L42.12 105.21 a0.967114 0.989082 -180 0 0 -1.56739 0.750338 L40.55 109.71 L0 109.71 L0
								 115.65 L51.89 115.65 a0.967114 0.989082 -180 0 0 0.600278 -1.84174 Z" class="st3"/>
				</g>
			</g>
		</g>
	</g>
</svg>
